!!!COM: Scriabin, Alexander
!!!OTL@@FR: Flammes sombres
!!!OTL@@EN: Flammes sombres
!!!OPR@@FR: 2 Danses
!!!OPR@@EN: 2 Dances
!!!OPS: 73
!!!ONM: 2
!!!ODT: 1914
!!!AGN: Dance
**kern	**kern	**dynam
*staff2	*staff1	*staff1/2
*Ipiano	*Ipiano	*
*clefF4	*clefG2	*
*k[]	*k[]	*
*X:	*X:	*
*M2/4	*M2/4	*
=1	=1	=1
*	*^	*
16r	12dL	6g-X	.
16ALL	.	.	.
.	12d-X	.	.
16E-X	.	.	.
.	12AJ	12dd-X	.
16FFJJ	.	.	.
16r	12g#XL	4cc	.
16d#XLL	.	.	.
.	12gn	.	.
16A	.	.	.
.	12d#XJ	.	.
16BBJJ	.	.	.
=2	=2	=2	=2
16r	12dnL	6g-X	.
16ALL	.	.	.
.	12d-X	.	.
16E-X	.	.	.
.	12AJ	12dd-X	.
16FFJJ	.	.	.
16r	12g#XL	4cc	.
16d#XLL	.	.	.
.	12gn	.	.
16A	.	.	.
.	12d#XJ	.	.
16BBJJ	.	.	.
=3	=3	=3	=3
16r	12dnL	6g-X	.
16ALL	.	.	.
.	12d-X	.	.
16E-X	.	.	.
.	12AJ	12dd-X	.
16FFJJ	.	.	.
16r	12bL	4een	.
16f#XLL	.	.	.
.	12b-X	.	.
16c	.	.	.
.	12f#XJ	.	.
16DnJJ	.	.	.
=4	=4	=4	=4
16r	12fnL	6b--	.
16cLL	.	.	.
.	12f-X	.	.
16G-X	.	.	.
.	12cJ	12ff-X	.
16AA-XJJ	.	.	.
[4BBn [4Fn [4e-X [4an	[4dd	[4ggn	.
=5	=5	=5	=5
4BB] 4F] 4e-] 4a]	12ddL]	4gg]	.
.	12dd-X	.	.
.	12aJ	.	.
4BB 4F 4e-X	12a-XL	4raa	.
.	12g	.	.
.	12e-XJ	.	.
=6	=6	=6	=6
4FF 4E-X 4An	12dnL	4g-X	.
.	12d-X	.	.
.	12AJ	.	.
4BBB 4FF#X 4D#X 4A	12dnL	4fn	.
.	12c#X	.	.
.	12AJ	.	.
*	*v	*v	*
=7	=7	=7
*^	*	*
12BBL	4rc	12r	.
12FFn	.	12r	.
12AJ	.	[12d [12dd	.
12rEE	[4G-X [4g-X	4d_ 4dd_	.
12e-XL	.	.	.
12AJ	.	.	.
=8	=8	=8	=8
12BBL	4G-] 4g-]	6d] 6dd]	.
12FF	.	.	.
12AJ	.	[12d [12dd	.
12rEE	4Gn 4gn	6d] 6dd]	.
12e-XL	.	.	.
12AJ	.	12c#X 12cc#X	.
=9	=9	=9	=9
*	*^	*^	*
16r	16rEE	8rc	4rc	4raa	.
16BB\LL	[8.BB	.	.	.	.
16F\	.	[8F	.	.	.
[16e-X\JJ	.	.	.	.	.
4e-\_	4BB_	4F_	[4a [4dd	[4ggn	.
=10	=10	=10	=10	=10	=10
2e-\]	2BB]	2F]	12aL] 12dd]	4gg]	.
.	.	.	12dd-X	.	.
.	.	.	12aJ	.	.
.	.	.	12a-XL	4raa	.
.	.	.	12g	.	.
.	.	.	12e-XJ	.	.
*	*v	*v	*	*	*
*v	*v	*	*	*
=11	=11	=11	=11
4FF 4E-X 4An	12dnL	4g-X	.
.	12d-X	.	.
.	12AJ	.	.
4BBB 4FF#X 4D#X 4A	12dnL	4fn	.
.	12c#X	.	.
.	12AJ	.	.
*	*v	*v	*
=12	=12	=12
*^	*	*
12BBL	4rc	12r	.
12FFn	.	12r	.
12AJ	.	[12d [12dd	.
12rEE	4G-X 4g-X	4d_ 4dd_	.
12e-XL	.	.	.
12AJ	.	.	.
=13	=13	=13	=13
12GGnL	4rc	6d] 6dd]	.
12DD-X	.	.	.
12FJ	.	[12e-- [12ee--	.
12rEE	4A-X 4a-X	12e--L] 12ee--]	.
12fL	.	12e-X 12ee-X	.
12c-XJ	.	12enJ 12een	.
=14	=14	=14	=14
*	*^	*^	*
16r	16rEE	8rc	4rc	4raa	.
16C#\LL	[8.C#X	.	.	.	.
16G\	.	[8G	.	.	.
[16f\JJ	.	.	.	.	.
4f\_	4C#_	4G_	[4b [4ee	[4aan	.
=15	=15	=15	=15	=15	=15
2f\]	2C#]	2G]	12bL] 12ee]	4aa]	.
.	.	.	12ee-X	.	.
.	.	.	12bJ	.	.
.	.	.	12b-XL	4raa	.
.	.	.	12a	.	.
.	.	.	12fJ	.	.
*	*v	*v	*	*	*
*v	*v	*	*	*
=16	=16	=16	=16
4GG 4F 4B	12enL	4a-X	.
.	12e-X	.	.
.	12BJ	.	.
4CC#X 4GG#X 4E#X 4B	12enL	4gn	.
.	12e-X	.	.
.	12BJ	.	.
*	*v	*v	*
=17	=17	=17
*^	*	*
12C#XL	4rc	12r	.
12GGn	.	12r	.
12BJ	.	[12en [12een	.
12rEE	4A-X 4a-X	4e_ 4ee_	.
12fL	.	.	.
12BJ	.	.	.
=18	=18	=18	=18
12AAnL	4rc	6e] 6ee]	.
12EE-X	.	.	.
12GJ	.	[12f-X [12ff-X	.
12rEE	4B-X 4b-X	6f-] 6ff-]	.
12gL	.	.	.
12d-XJ	.	12fn 12ffn	.
=19	=19	=19	=19
12C#XL	4rc	6r	.
12DD#X	.	.	.
12GJ	.	[12f#X [12ff#X	.
12rEE	4B-X 4b-X	4f#_ 4ff#_	.
12gL	.	.	.
12c#XJ	.	.	.
=20	=20	=20	=20
12GL	4rc	6f#] 6ff#]	.
12AA	.	.	.
12c#XJ	.	[12d#X [12dd#X	.
12rEE	4B-X 4b-X	4d#_ 4dd#_	.
12gL	.	.	.
12c#J	.	.	.
=21	=21	=21	=21
12C#XL	4rc	6d#] 6dd#]	.
12DD#X	.	.	.
12GJ	.	[12e [12ee	.
12rEE	4B-X 4b-X	6e] 6ee]	.
12gL	.	.	.
12c#XJ	.	[12f [12ff	.
=22	=22	=22	=22
12GL	4rc	6f] 6ff]	.
12AA	.	.	.
12c#XJ	.	12f#X 12ff#X	.
4Cn 4F#X 4e 4b-X	4d-X 4dd-X	12aL 12aa	.
.	.	12a-X 12aa-X	.
.	.	12gJ 12gg	.
=23	=23	=23	=23
12D#XL	4rc	8r	.
12AA	.	.	.
.	.	4f#X 4ff#X	.
12c#XJ	.	.	.
12rEE	4B-X 4b-X	.	.
12gL	.	.	.
.	.	8f# 8ff#	.
12c#J	.	.	.
=24	=24	=24	=24
12BB#XL	4rc	8r	.
12FF#X	.	.	.
.	.	4f#X 4ff#X	.
12A#XJ	.	.	.
12rEE	4G 4g	.	.
12eL	.	.	.
.	.	8f# 8ff#	.
12A#J	.	.	.
=25	=25	=25	=25
12D#XL	4rc	8r	.
12AAn	.	.	.
.	.	4f#X 4ff#X	.
12c#XJ	.	.	.
12rEE	4B-X 4b-X	.	.
12gL	.	.	.
.	.	8f# 8ff#	.
12c#J	.	.	.
=26	=26	=26	=26
12F#XL	4rc	8r	.
12Cn	.	.	.
.	.	8a 8aa	.
12eJ	.	.	.
12rEE	4d-X 4dd-X	8a-XL 8aa-X	.
12b-XL	.	.	.
.	.	8gJ 8gg	.
12eJ	.	.	.
=27	=27	=27	=27
16D#XLL	4rc	8r	.
16AA	.	.	.
16c#XJJ	.	4f#X 4ff#X	.
16rEE	.	.	.
16rEE	4B-X 4b-X	.	.
16gLL	.	.	.
16c#JJ	.	8f# 8ff#	.
16rEE	.	.	.
=28	=28	=28	=28
16BB#XLL	4rc	8r	.
16FF#X	.	.	.
16A#XJJ	.	4f#X 4ff#X	.
16rEE	.	.	.
16rEE	4G 4g	.	.
16eLL	.	.	.
16A#JJ	.	8f# 8ff#	.
16rEE	.	.	.
=29	=29	=29	=29
16D#XLL	4rc	8r	.
16AAn	.	.	.
16c#XJJ	.	4f#X 4ff#X	.
16rEE	.	.	.
16rEE	4B-X 4b-X	.	.
16gLL	.	.	.
16c#JJ	.	8f# 8ff#	.
16rEE	.	.	.
=30	=30	=30	=30
16F#XLL	4rc	8r	.
16Cn	.	.	.
16eJJ	.	8f#X 8ff#X	.
16rEE	.	.	.
16rEE	4d-X 4dd-X	8ff#L	.
16b-XLL	.	.	.
16enJJ	.	8ee-XJ	.
16rEE	.	.	.
*v	*v	*	*
=31	=31	=31
16D#XLL 16B-X	12c#X 12g 12b-X	.
16AAJJ	.	.
.	6f#X	.
8r	.	.
16DD#XLL 16BB-X	12c# 12g 12b-	.
16AAAJJ	.	.
.	6f#	.
8r	.	.
=32	=32	=32
16BB#XLL 16G	12A#X 12e 12g	.
16FF#XJJ	.	.
.	6f	.
8r	.	.
16BBB#XLL 16GG	12A# 12e 12g	.
16FFF#XJJ	.	.
.	6f	.
8r	.	.
=33	=33	=33
16D#XLL 16B-X	12c#X 12g 12b-X	.
16AAJJ	.	.
.	6f#X	.
8r	.	.
16DD#XLL 16BB-X	12c# 12g 12b-	.
16AAAJJ	.	.
.	6f#	.
8r	.	.
=34	=34	=34
16F#XLL 16d-X	12e 12b-X 12dd-X	.
16CnJJ	.	.
.	6a	.
8r	.	.
16FF#XLL 16D-X	12eL 12a-X 12b- 12dd-	.
16CCJJ	.	.
.	12gJ	.
8r	.	.
.	12r	.
=35	=35	=35
16D#XLL 16B-X	12c#XL 12g 12b-X	.
16AAnJJ	.	.
.	12f#X	.
8r	.	.
.	12f#J	.
16DD#XLL 16BB-X	12c#L 12g 12b-	.
16AAAJJ	.	.
.	12f#	.
8r	.	.
.	12f#J	.
=36	=36	=36
16BB#XLL 16G	12A#XL 12e 12g	.
16FF#XJJ	.	.
.	12f#X	.
8r	.	.
.	12f#J	.
16BBB#XLL 16GG	12A#L 12e 12g	.
16FFF#XJJ	.	.
.	12f#	.
8r	.	.
.	12f#J	.
=37	=37	=37
16D#XLL 16B-X	12c#XL 12g 12b-X	.
16AAnJJ	.	.
.	12f#X	.
8r	.	.
.	12f#J	.
16DD#XLL 16BB-X	12c#L 12g 12b-	.
16AAAJJ	.	.
.	12f#	.
8r	.	.
.	12f#J	.
=38	=38	=38
16F#XLL 16d-X	12eL 12b-X 12dd-X	.
16CnJJ	.	.
.	12a	.
8r	.	.
.	12aJ	.
16FF#XLL 16D-X	12eL 12a-X 12b- 12dd-	.
16CCJJ	.	.
.	12a-	.
8r	.	.
.	12gJ	.
=39	=39	=39
16D#XLL 16B-X	12c#XL 12g 12b-X	.
16AAnJJ	.	.
.	12f#X	.
8r	.	.
.	12f#J	.
16DD#XLL 16BB-X	12c#L 12g 12b-	.
16AAAJJ	.	.
.	12f#	.
8r	.	.
.	12f#J	.
=40	=40	=40
16F#XLL 16d-X	12eL 12b-X 12dd-X	.
16CnJJ	.	.
.	12a	.
8r	.	.
.	12aJ	.
16FF#XLL 16D-X	12eL 12a-X 12b- 12dd-	.
16CCJJ	.	.
.	12a-	.
8r	.	.
.	12gJ	.
=41	=41	=41
16D#XLL 16B-X	12c#XL 12g 12b-X	.
16AAnJJ	.	.
.	12f#X	.
8r	.	.
.	12f#J	.
16DD#XLL 16BB-X	12c#L 12g 12b-	.
16AAAJJ	.	.
.	12f#	.
8r	.	.
.	12f#J	.
=42	=42	=42
16F#XLL 16d-X	12eL 12b-X 12dd-X	.
16CnJJ	.	.
.	12a	.
8r	.	.
.	12aJ	.
16FF#XLL 16D-X	12eL 12a-X 12b- 12dd-	.
16CCJJ	.	.
.	12a-	.
8r	.	.
.	12gJ	.
=43	=43	=43
16D#XLL 16B-X	12c#XL 12g 12b-X	.
16AAnJJ	.	.
.	12f#X	.
8r	.	.
.	12f#J	.
16DD#XLL 16BB-X	12c#L 12g 12b-	.
16AAAJJ	.	.
.	12f#	.
8r	.	.
.	12f#J	.
=44	=44	=44
16BBnLL 16F#X	12AL 12dn 12d#X 12f#X	.
16EE#XJJ	.	.
.	12f#	.
8r	.	.
.	12f#J	.
16BBBLL 16FF#X	12AL 12dn 12d# 12f#	.
16EEE#XJJ	.	.
.	12f#	.
8r	.	.
.	12f#J	.
=45	=45	=45
16GG#XLL 16E-X	12F#XL 12c 12d 12e-X	.
16DDnJJ	.	.
.	12f#X	.
8r	.	.
.	12f#J	.
16GGG#XLL 16EE-X	12F#L 12c 12d 12e-	.
16DDDJJ	.	.
.	12f#	.
8r	.	.
.	12f#J	.
=46	=46	=46
16EE#XLL 16C	12D#XL 12A 12Bn 12c	.
16BBBJJ	.	.
.	12f#X	.
8r	.	.
.	12f#J	.
16EEE#XLL 16CC	12D#L 12A 12B 12c	.
16BBBBJJ	.	.
.	12f#	.
8r	.	.
.	12f#J	.
=47	=47	=47
2r	12f#XL	.
.	12f#	.
.	12f#J	.
.	12f#L	.
.	12f#	.
.	12f#J	.
=48||	=48||	=48||
*	*^	*
16r	12dL	6g-X	.
16ALL	.	.	.
.	12d-X	.	.
16E-X	.	.	.
.	12AJ	12dd-X	.
16FFnJJ	.	.	.
16r	12g#XL	4cc	.
16d#XLL	.	.	.
.	12gn	.	.
16A	.	.	.
.	12d#XJ	.	.
16BBJJ	.	.	.
=49	=49	=49	=49
16r	12dnL	6g-X	.
16ALL	.	.	.
.	12d-X	.	.
16E-X	.	.	.
.	12AJ	12dd-X	.
16FFJJ	.	.	.
16r	12g#XL	4cc	.
16d#XLL	.	.	.
.	12gn	.	.
16A	.	.	.
.	12d#XJ	.	.
16BBJJ	.	.	.
=50	=50	=50	=50
16r	12BnL	6e-X	.
16ALL	.	.	.
.	12B-X	.	.
16E-X	.	.	.
.	12AJ	12dd-X	.
16FFJJ	.	.	.
16rD	12bL	4een	.
16f#XLL	.	.	.
.	12b-X	.	.
16c	.	.	.
.	12f#XJ	.	.
16DJJ	.	.	.
=51	=51	=51	=51
16r	12fnL	6b--	.
16cLL	.	.	.
.	12f-X	.	.
16G-X	.	.	.
.	12cJ	12ff-X	.
16AA-XJJ	.	.	.
[4BBn [4Fn [4e-X	[4an [4dd	[4ggn	.
=52	=52	=52	=52
2BB] 2F] 2e-]	12aL] 12dd]	4gg]	.
.	12dd-X	.	.
.	12aJ	.	.
.	12a-XL	4raa	.
.	12g	.	.
.	12e-XJ	.	.
=53	=53	=53	=53
4FF 4E-X 4An	12dnL	4g-X	.
.	12d-X	.	.
.	12AJ	.	.
4BBB 4FF#X 4D#X 4A	12dnL	4fn	.
.	12c#X	.	.
.	12AJ	.	.
*	*v	*v	*
=54	=54	=54
*^	*	*
12EE#XL	4rc	6r	.
12BBB	.	.	.
12D#XJ	.	[12G#X [12g#X	.
12rEE	4Cn 4cn	4G#_ 4g#_	.
12AL	.	.	.
12D#J	.	.	.
=55	=55	=55	=55
12EE#XL	4rc	6G#] 6g#]	.
12BBB	.	.	.
12D#XJ	.	[12A [12a	.
12rEE	4C 4c	12A] 12a]	.
12AL	.	6c 6cc	.
12D#J	.	.	.
=56	=56	=56	=56
12AAL	4rc	12r	.
12BBB	.	12r	.
12E-XJ	.	[12dn [12ddn	.
12rEE	4G-X 4g-X	4d_ 4dd_	.
12e-XL	.	.	.
12AJ	.	.	.
=57	=57	=57	=57
12E-XL	4rc	6d] 6dd]	.
12FF	.	.	.
12AJ	.	[12B [12b	.
12rEE	4G-X 4g-X	4B_ 4b_	.
12e-XL	.	.	.
12AJ	.	.	.
=58	=58	=58	=58
12AAL	4rc	6B] 6b]	.
12BBB	.	.	.
12E-XJ	.	[12c [12cc	.
12rEE	4G-X 4g-X	6c] 6cc]	.
12e-XL	.	.	.
12AJ	.	[12d-X [12dd-X	.
=59	=59	=59	=59
12E-XL	4rc	6d-] 6dd-]	.
12FF	.	.	.
12AJ	.	12dn 12ddn	.
4AA-X 4D 4c 4g-X	4B-- 4b--	12fL 12ff	.
.	.	12f-X 12ff-X	.
.	.	12e-XJ 12ee-X	.
=60	=60	=60	=60
12BBnL	4rc	8r	.
12FFn	.	.	.
.	.	4d 4dd	.
12AnJ	.	.	.
12rEE	4G-X 4g-X	.	.
12e-XL	.	.	.
.	.	8d 8dd	.
12AJ	.	.	.
=61	=61	=61	=61
12GG#XL	4rc	8r	.
12DD	.	.	.
.	.	4d 4dd	.
12F#XJ	.	.	.
12rEE	4E-X 4e-X	.	.
12cL	.	.	.
.	.	8d 8dd	.
12F#J	.	.	.
=62	=62	=62	=62
12BBL	4rc	8r	.
12FFn	.	.	.
.	.	4d 4dd	.
12AJ	.	.	.
12rEE	4G-X 4g-X	.	.
12e-XL	.	.	.
.	.	8d 8dd	.
12AJ	.	.	.
=63	=63	=63	=63
12DL	4rc	8r	.
12AA-X	.	.	.
.	.	8f 8ff	.
12cJ	.	.	.
12rEE	4B-- 4b--	8f-XL 8ff-X	.
12g-XL	.	.	.
.	.	8e-XJ 8ee-X	.
12cJ	.	.	.
=64	=64	=64	=64
16BBnLL	4rc	8d 8dd	.
16FFn	.	.	.
16AnJJ	.	4d 4dd	.
16rEE	.	.	.
16rEE	4G-X 4g-X	.	.
16e-XLL	.	.	.
16AJJ	.	8d 8dd	.
16rEE	.	.	.
=65	=65	=65	=65
16GG#XLL	4rc	8r	.
16DD	.	.	.
16F#XJJ	.	4d 4dd	.
16rEE	.	.	.
16rEE	4E-X 4e-X	.	.
16cLL	.	.	.
16F#JJ	.	8d 8dd	.
16rEE	.	.	.
=66	=66	=66	=66
16BBLL	4rc	8r	.
16FFn	.	.	.
16AJJ	.	4d 4dd	.
16rEE	.	.	.
16rEE	4G-X 4g-X	.	.
16e-XLL	.	.	.
16AJJ	.	8d 8dd	.
16rEE	.	.	.
=67	=67	=67	=67
16DLL	4rc	8r	.
16AA-X	.	.	.
16cJJ	.	8d 8dd	.
16rEE	.	.	.
16rEE	4B-- 4b--	8dL 8dd	.
16g-XLL	.	.	.
16cJJ	.	8bnJ	.
16rEE	.	.	.
*v	*v	*	*
=68	=68	=68
16BBnLL 16G-X	12An 12e-X 12g-X	.
16FFJJ	.	.
.	6d	.
8r	.	.
16BBBLL 16GG-X	12A 12e- 12g-	.
16FFFJJ	.	.
.	6d	.
8r	.	.
=69	=69	=69
16GG#XLL 16E-X	12F#X 12c 12e-X	.
16DDJJ	.	.
.	6d	.
8r	.	.
16GGG#XLL 16EE-X	12F# 12c 12e-	.
16DDDJJ	.	.
.	6d	.
8r	.	.
=70	=70	=70
16BBLL 16G-X	12A 12e-X 12g-X	.
16FFJJ	.	.
.	6d	.
8r	.	.
16BBBLL 16GG-X	12A 12e- 12g-	.
16FFFJJ	.	.
.	6d	.
8r	.	.
=71	=71	=71
16DLL 16B--	12c 12g-X 12b--	.
16AA-XJJ	.	.
.	6d	.
8r	.	.
16DDLL 16BB--	12cL 12g- 12b--	.
16AAA-XJJ	.	.
.	12f-X	.
8r	.	.
.	12e-XJ	.
=72	=72	=72
16BBnLL 16G-X	12AnL 12e-X 12g-X	.
16FFJJ	.	.
.	12d	.
8r	.	.
.	12dJ	.
16BBBLL 16GG-X	12AL 12e- 12g-	.
16FFFJJ	.	.
.	12d	.
8r	.	.
.	12dJ	.
=73	=73	=73
16GG#XLL 16E-X	12F#XL 12c 12e-X	.
16DDJJ	.	.
.	12d	.
8r	.	.
.	12dJ	.
16GGG#XLL 16EE-X	12F#L 12c 12e-	.
16DDDJJ	.	.
.	12d	.
8r	.	.
.	12dJ	.
=74	=74	=74
16BBLL 16G-X	12AL 12e-X 12g-X	.
16FFJJ	.	.
.	12d	.
8r	.	.
.	12dJ	.
16BBBLL 16GG-X	12AL 12e- 12g-	.
16FFFJJ	.	.
.	12d	.
8r	.	.
.	12dJ	.
=75	=75	=75
16DLL 16B--	12cL 12g-X 12b--	.
16AA-XJJ	.	.
.	12d	.
8r	.	.
.	12dJ	.
16DDLL 16BB--	12cL 12f-X 12g- 12b--	.
16AAA-XJJ	.	.
.	12f-	.
8r	.	.
.	12e-XJ	.
=76	=76	=76
16BBnLL 16G-X	12AnL 12e-X 12g-X	.
16FFJJ	.	.
.	12d	.
8r	.	.
.	12dJ	.
16BBBLL 16GG-X	12AL 12e- 12g-	.
16FFFJJ	.	.
.	12d	.
8r	.	.
.	12dJ	.
=77	=77	=77
16DLL 16B--	12cL 12g-X 12b--	.
16AA-XJJ	.	.
.	12f	.
8r	.	.
.	12fJ	.
16DDLL 16BB--	12cL 12f-X 12g- 12b--	.
16AAA-XJJ	.	.
.	12f-	.
8r	.	.
.	12e-XJ	.
=78	=78	=78
16BBnLL 16G-X	12AnL 12e-X 12g-X	.
16FFnJJ	.	.
.	12d	.
8r	.	.
.	12dJ	.
16BBBLL 16GG-X	12AL 12e- 12g-	.
16FFFJJ	.	.
.	12d	.
8r	.	.
.	12dJ	.
=79	=79	=79
16DLL 16B--	12cL 12g-X 12b--	.
16AA-XJJ	.	.
.	12f	.
8r	.	.
.	12fJ	.
16DDLL 16BB--	12cL 12f-X 12g- 12b--	.
16AAA-XJJ	.	.
.	12f-	.
8r	.	.
.	12e-XJ	.
=80	=80	=80
2r	2r	.
=81||	=81||	=81||
*	*^	*
*	*	*^	*
4FFn 4E-X 4An	12d\L	4rc	6g-X	.
.	12d-X\	.	.	.
.	12A\J	.	12dd-X	.
[4BB [4A 4d#X	12g#X\L	12rc	[4cc	.
.	12g\	[6gn	.	.
.	[12d#X\J	.	.	.
=82	=82	=82	=82	=82
2BB] 2A]	2d#/]	2g]	2cc]	.
*	*	*v	*v	*
*	*v	*v	*
=83	=83	=83
2FFF 2FF 2E-X	2A 2dn 2g-X	.
==	==	==
*-	*-	*-
!!!system-decoration: {(*)}
!!!ENC: Bryan Jacob Bell
!!!END: November 2021 to April 2022
!!!PED: Günter Philipp
!!!PTL: Ausgewählte Klavierwerke (Edition Peters)
